lib/radiotmp/nrk-hardware-speaker-expressive.svg

<svg width="24" height="24" viewBox="0 0 24 24" fill="none" xmlns="http://www.w3.org/2000/svg">
<path fill-rule="evenodd" clip-rule="evenodd" d="M16.9977 23.0158C18.6555 23.017 20 21.6735 20 20.0158V3.99402C20 2.33717 18.6569 0.994019 17 0.994019H7C5.34315 0.994019 4 2.33716 4 3.99402V20.0083C4 21.6642 5.34177 23.007 6.99775 23.0083L16.9977 23.0158ZM6 4.00002C6 3.44773 6.44772 3.00002 7 3.00002H17C17.5523 3.00002 18 3.44773 18 4.00002V20C18 20.5523 17.5523 21 17 21H7C6.44772 21 6 20.5523 6 20V4.00002ZM12 8.50002C12.197 8.50002 12.392 8.46122 12.574 8.38584C12.756 8.31046 12.9214 8.19997 13.0607 8.06068C13.1999 7.92139 13.3104 7.75603 13.3858 7.57404C13.4612 7.39206 13.5 7.197 13.5 7.00002C13.5 6.80304 13.4612 6.60798 13.3858 6.42599C13.3104 6.24401 13.1999 6.07865 13.0607 5.93936C12.9214 5.80007 12.756 5.68958 12.574 5.6142C12.392 5.53882 12.197 5.50002 12 5.50002C11.6022 5.50002 11.2206 5.65805 10.9393 5.93936C10.658 6.22066 10.5 6.60219 10.5 7.00002C10.5 7.39784 10.658 7.77937 10.9393 8.06068C11.2206 8.34198 11.6022 8.50002 12 8.50002ZM12 17C11.4696 17 10.9609 16.7893 10.5858 16.4142C10.2107 16.0392 10 15.5305 10 15C10 14.4696 10.2107 13.9609 10.5858 13.5858C10.9609 13.2107 11.4696 13 12 13C12.5304 13 13.0391 13.2107 13.4142 13.5858C13.7893 13.9609 14 14.4696 14 15C14 15.5305 13.7893 16.0392 13.4142 16.4142C13.0391 16.7893 12.5304 17 12 17ZM12 19C10.9391 19 9.92172 18.5786 9.17157 17.8284C8.42143 17.0783 8 16.0609 8 15C8 13.9392 8.42143 12.9217 9.17157 12.1716C9.92172 11.4214 10.9391 11 12 11C13.0609 11 14.0783 11.4214 14.8284 12.1716C15.5786 12.9217 16 13.9392 16 15C16 16.0609 15.5786 17.0783 14.8284 17.8284C14.0783 18.5786 13.0609 19 12 19Z" fill="black"/>
</svg>

<svg xmlns="http://www.w3.org/2000/svg" viewBox="0 0 24 24"><path fill="#000" fill-rule="evenodd" d="M16.998 23.016a3 3 0 0 0 3.002-3V3.994a3 3 0 0 0-3-3H7a3 3 0 0 0-3 3v16.014a3 3 0 0 0 2.998 3l10 .008ZM6 4a1 1 0 0 1 1-1h10a1 1 0 0 1 1 1v16a1 1 0 0 1-1 1H7a1 1 0 0 1-1-1V4Zm6 4.5a1.5 1.5 0 1 0 0-3 1.5 1.5 0 0 0 0 3Zm0 8.5a2 2 0 1 1 0-4 2 2 0 0 1 0 4Zm0 2a4 4 0 1 1 0-8 4 4 0 0 1 0 8Z" clip-rule="evenodd"/></svg>
